svg/Meteorology/thunderstorms/rain/thunderstorm_severe.svg

<svg xmlns="http://www.w3.org/2000/svg" viewBox="0 0 744.09 1052.36"><g transform="translate(164.29 70.6)"><path d="m252.5 463.08l.357-117.5 63.21.357" fill="none" fill-rule="evenodd" stroke="#000" stroke-width="4.5"/><path transform="matrix(.63806.03256-.03453.60161 232.06 100.37)" d="M111.62185 373.03461A18.18275 19.697975 0 1 1 75.25637 373.03461 18.18275 19.697975 0 1 1 111.62185 373.03461" opacity=".985"/><g transform="matrix(-.81181 0 0 .71832 535.58 110.71)" fill-rule="evenodd" stroke="#000"><path d="m277.14 391.14l37.857 35.2-18.214 18.267-18.214 18.267" fill="none" stroke-width="2.132"/><path d="m275.29 460.21l7.589 4.322-7.096 1.48-.493-5.802z" stroke-width=".915"/></g><g fill="none" fill-rule="evenodd" stroke="#000"><path d="m277.4 391.65l37.5-45" stroke-width="2.3"/><path d="m276.59 391.53h34.471" stroke-width="1.8"/></g></g></svg>

<?xml version="1.0" encoding="UTF-8" standalone="no"?>
<!-- Created with Inkscape (http://www.inkscape.org/) -->
<svg
   xmlns:dc="http://purl.org/dc/elements/1.1/"
   xmlns:cc="http://web.resource.org/cc/"
   xmlns:rdf="http://www.w3.org/1999/02/22-rdf-syntax-ns#"
   xmlns:svg="http://www.w3.org/2000/svg"
   xmlns="http://www.w3.org/2000/svg"
   xmlns:sodipodi="http://sodipodi.sourceforge.net/DTD/sodipodi-0.dtd"
   xmlns:inkscape="http://www.inkscape.org/namespaces/inkscape"
   width="744.09448819"
   height="1052.3622047"
   id="svg2"
   sodipodi:version="0.32"
   inkscape:version="0.44.1"
   sodipodi:docbase="C:\Documents and Settings\pc\Desktop\meteo\meteo svg\thunderstorms\rain"
   sodipodi:docname="thunderstorm_severe.svg">
  <defs
     id="defs4" />
  <sodipodi:namedview
     id="base"
     pagecolor="#ffffff"
     bordercolor="#666666"
     borderopacity="1.0"
     inkscape:pageopacity="0.0"
     inkscape:pageshadow="2"
     inkscape:zoom="1.4"
     inkscape:cx="375"
     inkscape:cy="520"
     inkscape:document-units="px"
     inkscape:current-layer="layer1"
     showgrid="true"
     inkscape:window-width="1280"
     inkscape:window-height="744"
     inkscape:window-x="-4"
     inkscape:window-y="-4" />
  <metadata
     id="metadata7">
    <rdf:RDF>
      <cc:Work
         rdf:about="">
        <dc:format>image/svg+xml</dc:format>
        <dc:type
           rdf:resource="http://purl.org/dc/dcmitype/StillImage" />
      </cc:Work>
    </rdf:RDF>
  </metadata>
  <g
     inkscape:label="Livello 1"
     inkscape:groupmode="layer"
     id="layer1">
    <g
       id="g6440"
       transform="translate(164.2857,70.59643)">
      <path
         id="path1935"
         d="M 252.5,463.07647 L 252.85714,345.57647 L 316.07143,345.93361"
         style="fill:none;fill-rule:evenodd;stroke:black;stroke-width:4.5;stroke-linecap:butt;stroke-linejoin:miter;stroke-miterlimit:4;stroke-dasharray:none;stroke-opacity:1" />
      <path
         transform="matrix(0.638057,3.255592e-2,-3.452844e-2,0.601606,232.063,100.3683)"
         d="M 111.62185 373.03461 A 18.182745 19.697975 0 1 1  75.256365,373.03461 A 18.182745 19.697975 0 1 1  111.62185 373.03461 z"
         sodipodi:ry="19.697975"
         sodipodi:rx="18.182745"
         sodipodi:cy="373.03461"
         sodipodi:cx="93.43911"
         id="path4600"
         style="opacity:0.98543689;fill:black;fill-opacity:1;stroke:black;stroke-width:0;stroke-linecap:square;stroke-linejoin:miter;stroke-miterlimit:4;stroke-dasharray:none;stroke-opacity:1"
         sodipodi:type="arc" />
      <g
         transform="matrix(-0.811808,0,0,0.718324,535.582,110.7069)"
         id="g2721">
        <path
           style="fill:none;fill-rule:evenodd;stroke:black;stroke-width:2.13238645;stroke-linecap:butt;stroke-linejoin:miter;stroke-miterlimit:4;stroke-dasharray:none;stroke-opacity:1"
           d="M 277.1429,391.14003 L 315.00004,426.33685 L 296.78575,444.60355 L 278.57147,462.87025"
           id="path2824"
           sodipodi:nodetypes="cccc" />
        <path
           style="fill:black;fill-opacity:1;fill-rule:evenodd;stroke:black;stroke-width:0.91546005px;stroke-linecap:butt;stroke-linejoin:miter;stroke-opacity:1"
           d="M 275.28662,460.20722 L 282.87596,464.52924 L 275.77984,466.00945 L 275.28662,460.20722 z "
           id="path4598" />
      </g>
      <path
         id="path2725"
         d="M 277.4021,391.6479 L 314.9021,346.6479"
         style="fill:none;fill-rule:evenodd;stroke:black;stroke-width:2.29999995;stroke-linecap:butt;stroke-linejoin:miter;stroke-miterlimit:4;stroke-dasharray:none;stroke-opacity:1" />
      <path
         id="path5553"
         d="M 276.5924,391.52531 L 311.06385,391.52531"
         style="fill:none;fill-rule:evenodd;stroke:black;stroke-width:1.79999995;stroke-linecap:butt;stroke-linejoin:miter;stroke-miterlimit:4;stroke-dasharray:none;stroke-opacity:1" />
    </g>
  </g>
</svg>
